svgs/sharp-solid/hood-cloak.svg

<svg xmlns="http://www.w3.org/2000/svg" viewBox="0 0 576 512"><!--! Font Awesome Pro 6.6.0 by @fontawesome - https://fontawesome.com License - https://fontawesome.com/license (Commercial License) Copyright 2024 Fonticons, Inc. --><path d="M0 464l0 48 128 0 0-192c0-88.4 71.6-160 160-160s160 71.6 160 160l0 192 128 0 0-48-64-80 0-96c0-98.4-42.4-172.6-104.8-215.2L480 0 288 0C160 0 64 128 64 288l0 96L0 464zm416 48l0-192c0-70.7-57.3-128-128-128s-128 57.3-128 128l0 192 256 0z"/></svg>

<svg xmlns="http://www.w3.org/2000/svg" viewBox="0 0 576 512"><!--! Font Awesome Pro 6.4.0 by @fontawesome - https://fontawesome.com License - https://fontawesome.com/license (Commercial License) Copyright 2023 Fonticons, Inc. --><path d="M0 464v48H128V320c0-88.4 71.6-160 160-160s160 71.6 160 160V512H576V464l-64-80V288c0-98.4-42.4-172.6-104.8-215.2L480 0H288C160 0 64 128 64 288v96L0 464zm416 48V320c0-70.7-57.3-128-128-128s-128 57.3-128 128V512H416z"/></svg>
